icons/editor-pen-tool-4-filled.svg

<svg width="25" height="24" viewBox="0 0 25 24" fill="none" xmlns="http://www.w3.org/2000/svg">
<g id="pen-tool-04-filled">
<g id="Icon">
<path d="M21.0488 4.11156C21.4003 3.76028 21.9734 3.93063 21.8269 4.40527L19.1199 13.6857C18.9549 14.2889 18.5666 14.8231 18.0336 15.1611L13.1799 18.4539C12.9008 18.6358 12.5764 18.6189 12.3572 18.3998L5.85248 11.8982C5.63327 11.679 5.64209 11.3295 5.79832 11.0758L9.0927 6.22438C9.43092 5.69166 9.96528 5.30363 10.5688 5.13865L19.8291 2.4086C20.305 2.32883 20.4609 2.84851 20.1198 3.18946L15.9442 7.3631C15.618 7.68918 15.1323 7.74023 14.6685 7.776C13.6779 7.78302 12.8769 8.58763 12.8769 9.57914C12.8769 10.575 13.6849 11.3823 14.6816 11.3823C15.6783 11.3823 16.4863 10.575 16.4863 9.57914C16.4863 9.5134 16.4828 9.44848 16.4759 9.38456C16.5124 8.97444 16.5931 8.5652 16.8795 8.27892L21.0488 4.11156Z" fill="black"/>
<path d="M4.84572 13.0443L11.2105 19.4061C11.4552 19.6507 11.4439 20.0534 11.1852 20.3121L10.098 21.3987C9.83927 21.6574 9.43649 21.6688 9.19162 21.424L2.82685 15.0622C2.58216 14.8177 2.59321 14.4151 2.85214 14.1563L3.93933 13.0696C4.19807 12.811 4.60085 12.7996 4.84572 13.0443Z" fill="black"/>
</g>
</g>
</svg>

<svg xmlns="http://www.w3.org/2000/svg" width="25" height="24" fill="none" viewBox="0 0 25 24"><g fill="currentColor"><path d="M21.049 4.112c.351-.352.924-.181.778.293l-2.707 9.28a2.55 2.55 0 0 1-1.086 1.476l-4.854 3.293c-.28.182-.604.165-.823-.054l-6.505-6.502c-.219-.219-.21-.569-.054-.822l3.295-4.852c.338-.532.872-.92 1.476-1.085l9.26-2.73c.476-.08.632.44.29.78l-4.175 4.174c-.326.326-.812.377-1.276.413a1.804 1.804 0 1 0 1.808 1.609c.036-.41.117-.82.404-1.106zM4.846 13.044l6.365 6.362c.244.245.233.647-.026.906L10.098 21.4c-.259.258-.662.27-.906.025l-6.365-6.362c-.245-.244-.234-.647.025-.906L3.94 13.07c.26-.259.662-.27.907-.026"/></g></svg>
